X: 17689
T: Hollyford, The
R: jig
M: 6/8
K: Dmixolydian
|:AG|F3 AGG|AFD GEA|D3 c2A|ded cAG|
F3 AGG|AFD GEA|D3 GEA|1 D3 DAG:|2 D3 D2B||
|:c3 cAd|dcA GEA|D3 c2A|ded cAB|
cBc edd|ecA GEA|D3 GEA|1 D3 D2B:|2 D3 DAG||

